X: 1
T: Reel du lapin
M: C|
L: 1/8
R: reel
K: G
z2 |:\
"G"G2Bd gagf | "C"edcB "Am7"ABAF | "D"DEFG "Em7"ABAF | "Ddim/F"GFGB "D/F#"d2(3DEF |
"G"G2Bd gagf | "C"edcB "Am7"ABAF | "D"DEFG A2 "^pizz"e2 | "D"dcBA "G"G2  :|
|: "D+"Bc |\
"G"dBGA BGBc | dB"G#dim"GBx "Am7"A2 AB | "D"cAFA DFAB | cAFA "D7"d2Bc |
"G"dBGA BGBc | dB"G#dim"GBx "Am7"A2 AB | "D"cAFA D2 "^pizz"e2 | "D"dcBA "G"G2 :|
% text Transition: Play pickups.
% text 4/25/13
